X:8 
T:()
M:4/4
L:1/8
Q:180
K:Eb
|: (3d~ed c2c2c2 | (3d~ed B2A2G2 | G2Bc BAG2 | A2B2 c2c2 
 | (3d~ed c2c2c2 | (3d~ed B2A2G2 | G2=EF GAB2 | cBBA G2G2 :|
|: GFFG G2G2 | G3G G2G2 | (3d~ed c2c2c2 | (3d~ed B2A2G2 
 | GFFG G2G2 | AAAA B2c2 | BcBA G2G2 | G3A GFG2 :||
